X:1
T:Marche Nuptiale (Berry) 
F:http://simonwascher.info
Z:abc transcription Simon Wascher
M:6/8
L:1/8
K:G
DGB DGB | BAG A2^F | DFA DFA | cBA B2G |\
DGB DGB | BAG A2F | DFA DFA | cBA G3 :|
|:\
DGB d2^c | d2c A3 | DFA c2B | c2d B3 |
DGB d2^c | d2c A2z | DFA cAF | DEF G3 :|
W:aus Simon Waschers TradArchiv

